jsapp/svg-icons/qt-text.svg

<svg height="642" viewBox="0 0 642 642" width="642" xmlns="http://www.w3.org/2000/svg"><g fill="#000" fill-rule="nonzero"><path d="m166.64 467.87c-1.60523-3.654171-2.971439-7.40874-4.09-11.24-1.206072-4.057645-2.1283-8.194305-2.76-12.38-4.679986 7.94916-11.012817 14.800349-18.57 20.09-7.493442 5.071597-16.373405 7.698557-25.42 7.52-17.0133333 0-30.63-5.586667-40.85-16.76s-15.33-26.086667-15.33-44.74c0-20.186667 6.5066667-35.853333 19.52-47s32.346667-16.733333 58-16.76h20.36v-16.79c0-10-1.81-17.713333-5.43-23.14s-9.046667-8.123333-16.28-8.09c-6.093333 0-10.663333 2.156667-13.71 6.47s-4.57 10.596667-4.57 18.85l-52.37-.19-.57-1.14c-.6666667-17.9 5.9666667-33.133333 19.9-45.7s32.246667-18.856667 54.94-18.87c21.453333 0 38.876667 6.253333 52.27 18.76s20.09 30.313333 20.09 53.42v83.42c-.053431 9.506972.645416 19.003269 2.09 28.4 1.404178 8.804077 3.568949 17.469852 6.47 25.9zm-35.23-36.75c5.36313.028246 10.620347-1.492666 15.14-4.38 4.531305-2.789947 8.308489-6.649542 11-11.24v-37.9h-20.43c-8.253333 0-14.22 2.856667-17.9 8.57s-5.52 12.95-5.52 21.71c0 6.853333 1.586667 12.44 4.76 16.76 2.946789 4.206683 7.816478 6.643408 12.95 6.48z"/><path d="m407.53 380.65c0 27.8-5.743333 49.953333-17.23 66.46s-28.34 24.76-50.56 24.76c-9.646667 0-18.056667-2.223333-25.23-6.67s-13.3-10.92-18.38-19.42l-3.24 22.09h-46.89v-297.07h54.08v108.55c4.407296-6.479935 10.217811-11.883714 17-15.81 6.813054-3.766714 14.496233-5.677163 22.28-5.54 22.34 0 39.286667 8.6 50.84 25.8s17.33 40.146667 17.33 68.84zm-53.89-28.11c0-16.146667-2-28.733333-6-37.76s-11.393333-13.54-22.18-13.54c-5.33511-.134039-10.578996 1.400672-15 4.39-4.432613 3.184922-7.986426 7.440553-10.33 12.37v96.31c2.289737 4.446712 5.832381 8.124943 10.19 10.58 4.724766 2.466319 10.002414 3.68159 15.33 3.53 10.92 0 18.316667-4.036667 22.19-12.11s5.81-19.993333 5.81-35.76z"/><path d="m510.74 428.64c7.333333 0 12.886667-2.73 16.66-8.19s5.64-13.33 5.6-23.61h49.13l.57 1.14c.38 21.586667-6.253333 39.296667-19.9 53.13s-31.006667 20.753333-52.08 20.76c-26.666667 0-47.136667-8.696667-61.41-26.09s-21.413333-39.863333-21.42-67.41v-26.47c0-27.42 7.11-49.923333 21.33-67.51s34.6-26.383333 61.14-26.39c22.34 0 40.083333 7.173333 53.23 21.52s19.526667 33.706667 19.14 58.08l-.38 1h-49.35c0-11.226667-1.873333-20.253333-5.62-27.08s-9.413333-10.24-17-10.24c-10.793333 0-18.22 4.576667-22.28 13.73s-6.093333 21.41-6.1 36.77v26.52c0 15.766667 2.03 28.1 6.09 37s11.61 13.346667 22.65 13.34z"/></g></svg>

<svg id="Layer_1" data-name="Layer 1" xmlns="http://www.w3.org/2000/svg" viewBox="0 0 642 642"><path d="M166.64,467.87a92.18,92.18,0,0,1-4.09-11.24,91.24,91.24,0,0,1-2.76-12.38,64.41,64.41,0,0,1-18.57,20.09,43.81,43.81,0,0,1-25.42,7.52q-25.52,0-40.85-16.76T59.62,410.36q0-30.28,19.52-47t58-16.76H157.5V329.81q0-15-5.43-23.14t-16.28-8.09q-9.14,0-13.71,6.47t-4.57,18.85l-52.37-.19-.57-1.14q-1-26.85,19.9-45.7T139.41,258q32.18,0,52.27,18.76t20.09,53.42V413.6A180.24,180.24,0,0,0,213.86,442a154.26,154.26,0,0,0,6.47,25.9Zm-35.23-36.75a27.85,27.85,0,0,0,15.14-4.38,32.51,32.51,0,0,0,11-11.24v-37.9H137.12q-12.38,0-17.9,8.57t-5.52,21.71q0,10.28,4.76,16.76A15.22,15.22,0,0,0,131.41,431.12Z"/><path d="M407.53,380.65q0,41.7-17.23,66.46t-50.56,24.76q-14.47,0-25.23-6.67t-18.38-19.42l-3.24,22.09H246V170.8h54.08V279.35a52.17,52.17,0,0,1,17-15.81A44.43,44.43,0,0,1,339.36,258q33.51,0,50.84,25.8t17.33,68.84Zm-53.89-28.11q0-24.22-6-37.76t-22.18-13.54a25.63,25.63,0,0,0-15,4.39A32.32,32.32,0,0,0,300.13,318v96.31a25.59,25.59,0,0,0,10.19,10.58,31.21,31.21,0,0,0,15.33,3.53q16.38,0,22.19-12.11t5.81-35.76Z"/><path d="M510.74,428.64q11,0,16.66-8.19T533,396.84h49.13l.57,1.14q.57,32.38-19.9,53.13t-52.08,20.76q-40,0-61.41-26.09t-21.42-67.41V351.9q0-41.13,21.33-67.51T510.36,258q33.51,0,53.23,21.52t19.14,58.08l-.38,1H533q0-16.84-5.62-27.08t-17-10.24q-16.19,0-22.28,13.73T482,351.78V378.3q0,23.65,6.09,37T510.74,428.64Z"/></svg>
